src/Assets/Icons/Paper.svg

<?xml version="1.0" encoding="UTF-8"?>
<svg fill="none" viewBox="0 0 24 24" xmlns="http://www.w3.org/2000/svg">
<path d="m18 3c1.6569 0 3 1.3431 3 3v2.1428c0 0.33412 0 0.50119-0.0766 0.62316-0.04 0.0636-0.0938 0.11738-0.1574 0.15734-0.122 0.07664-0.289 0.07664-0.6231 0.07664h-5.1429m3-6c-1.6569 0-3 1.3431-3 3v3m3-6h-11c-1.8856 0-2.8284 0-3.4142 0.58578-0.58579 0.58579-0.58579 1.5286-0.58579 3.4142v14l3-1 3 1 3-1 3 1v-12" stroke="currentColor" stroke-width="2"/>
<path d="m7 7h4" stroke="currentColor" stroke-linecap="round" stroke-width="2"/>
<path d="M8 11H7" stroke="currentColor" stroke-linecap="round" stroke-width="2"/>
<path d="m7 15h3" stroke="currentColor" stroke-linecap="round" stroke-width="2"/>
</svg>

<svg viewBox="0 0 24 24" fill="none" xmlns="http://www.w3.org/2000/svg">
<path d="M18 3.00001V3.00001C19.6569 3.00001 21 4.34315 21 6.00001L21 8.14286C21 8.47698 21 8.64405 20.9234 8.76602C20.8834 8.82962 20.8296 8.8834 20.766 8.92336C20.644 9 20.477 9 20.1429 9L15 9M18 3.00001V3.00001C16.3431 3.00001 15 4.34315 15 6.00001L15 9M18 3.00001L7 3.00001C5.11438 3.00001 4.17157 3.00001 3.58579 3.58579C3 4.17158 3 5.11439 3 7.00001L3 21L6 20L9 21L12 20L15 21L15 9" stroke="currentColor" stroke-width="2"/>
<path d="M7 7L11 7" stroke="currentColor" stroke-width="2" stroke-linecap="round"/>
<path d="M8 11H7" stroke="currentColor" stroke-width="2" stroke-linecap="round"/>
<path d="M7 15L10 15" stroke="currentColor" stroke-width="2" stroke-linecap="round"/>
</svg>
